X:1
T:St. Ignatius (Barnby), SM
T:St. Ignatius (Barnby), SM
T:Joseph Barnby, 1869
T:Public Domain Courtesy of the Cyber Hymnal™
C:Joseph Barnby, 1869
Z:Public Domain
Z:Courtesy of the Cyber Hymnal™
%%score ( 1 2 ) ( 3 4 )
L:1/8
Q:1/4=112
M:4/4
K:C
V:1 treble 
V:2 treble 
V:3 bass 
V:4 bass 
V:1
 [Ec]2 | [EB]2 [EA]2 [DA]2 ^G2 | [EA]6 [EB]2 | [Ec]2 [EB]2 [Dd]2 [FB]2 | [E^G]6 E2 | %5
 [EA]2 [EB]2 [Ec]2 [EB]2 | [Ec]2 [Ad]2 [^Ge]2 e2 | [Fd]2 (cB) [EA]2 [^GB]2 | A6 |] %9
V:2
 x2 | x6 (EF) | x8 | x8 | x6 E2 | x8 | x6 (A=G) | x2 F2 x4 | A6 |] %9
V:3
 [A,,A,]2 | [^G,,D]2 [A,,C]2 [F,B,]2 B,2 | [C,A,]6 [E,^G,]2 | A,2 [G,B,]2 [F,A,]2 [D,D]2 | %4
 [E,B,]6 [D,^G,]2 | [C,A,]2 [E,^G,]2 A,2 [E,G,]2 | A,2 A,2 B,2 [^C,A,]2 | %7
 [D,A,]2 [D,D]2 [E,C]2 [E,D]2 | [A,,C]6 |] %9
V:4
 x2 | x6 (E,D,) | x8 | A,2 x6 | x8 | x4 A,2 x2 | A,2 (G,F,) (E,D,) x2 | x8 | x6 |] %9

